X:1
T:RVW2/1/22 A Frolicsome Sargeant-0
T:RVW2/1/22 A Frolicsome Sargeant-0
T:Sung by Mr. Drabbles of Thrybergh, Sept. 1907 (1 of 4)
T:Transcribed by Simon Furey and Lewis Jones
C:Transcribed by Simon Furey and Lewis Jones
L:1/8
Q:1/4=120
M:4/4
K:F
V:1 treble 
V:1
"^(editorial suggestion)" cA | F2 FG A2"^(a)" AA | B2 BB c3 c | F2 FG A2 GF |"^(b)" B2 Bd c3 c | %5
 c2 cd"^(c)" _ed"^(d)" e>d | cccd _e3 c | f2 fc c2 BA |"^(e)" B2 BA G2 F_E | F>G A>B c2 f2 | %10
 A>A AG F2 || cA | F2 FG A2"^(a) var." GF | B2 BB c3 c | F2 FG A2 GF |"^(b) var." BABd c3 c | %16
 c2 c"^(c) var."d _e2"^(d) var." de | cccd _e3 c | f2 fc c2 BA |"^(e) var." BcBA G2 F_E | %20
 F>G A>B c2 f2 | A>A AG F2 |] %22

